X:1
T:Exaltabo Te
T:Orlando di Lasso
T:Exaltabo Te
C:Orlando di Lasso
%%score [ 1 2 3 4 ]
L:1/8
Q:1/2=120
M:4/2
K:G
V:1 treble nm="SOPRANO" snm="S."
V:2 treble nm="ALTO" snm="A."
V:3 treble-8 transpose=-12 nm="TENOR" snm="T."
V:4 bass nm="BASS" snm="B."
V:1
 z16 | z16 | z16 | G8 B4 d4- | d2 c2 B2 A2 G2 F2 E4 | B8 e6 d2 | c2 B2 e2 d2 c2 B2 e4 | %7
w: |||Ex- al- ta-|* * * * * * bo|te Do- *||
 d2 c2 B2 A2 G4 c4 | B4 G4 B8 | c8 B4 c4- | c2 BA B4 A4 A4 | A8 d6 d2 | d4 e8 c4 | B6 AG A4 A4 | %14
w: * * * * * mi-|ne, ex- al-|ta- bo te|_ _ _ _ Do- mi-|ne, quo- ni-|am sus- ce-|pi- * * * sti|
 B2 A2 G2 F2 E8 | z16 | z8 z4 G4 | G4 G4 G8 | E4 e4 e4 e4 | e8 c8 | B8 A4 A4- | A2 A2 A4 G6 A2 | %22
w: me, _ _ _ _||nec|de- lec- ta-|sti, nec de- lec-|ta- sti|i- ni- mi-|* cos me- os _|
 B2 c2 d6 cB A4 | A4 G6 FE F4 | G4 G8 G4 | G12 G4 | B6 A2 G4 F4 | G4 A4 z4 F4- | F4 F4 F4 B4 | %29
w: _ _ _ _ _ _|su- per _ _ _|me, Do- mi-|ne cla-|ma- * * vi|ad te, Do-|* mi- ne cla-|
 d6 c2 B4 A4 | z4 F4 d6 c2 | B4 A4 G4 F2 E2 | G4 F4 d6 c2 | B2 A2 G2 A2 B4 c4- | %34
w: ma- * * vi|cla- ma- *|* vi ad _ _|_ te, et _|_ _ _ _ _ sa-|
 c2 B2 A2 G2 F4 d4- | d2 c2 B2 A2 G2 A2 B4 | E2 F2 G6 FE F4 | G8 d6 c2 | B2 A2 G2 A2 B4 c4- | %39
w: * * * * * na-||sti _ _ _ _ _|me, et _|_ _ _ _ _ sa-|
 c2 B2 A2 G2 F4 d4- | d2 c2 B2 A2 G2 A2 B4 | E2 F2 G6 FE F4 | G16- | G16- | G16 |] %45
w: * * * * * na-||sti _ _ _ _ _|me.|_||
V:2
 z16 | z16 | z16 | z16 | D8 E4 G4- | G2 F2 E2 D2 C2 B,2 A,4 | E4 C4 G6 A2 | B2 A2 G2 F2 E8- | %8
w: ||||Ex- al- ta-|* * * * * * bo|te * Do- *||
 E4 D4 G4 G4- | G4 A4 G8 | G4 G4 E6 E2 | E4 F6 F2 F4 | G8 E4 A4- | A2 G2 G6 FE F4 | G4 D4 G6 G2 | %15
w: * mi- ne, ex-|* al- ta-|bo te Do- mi-|ne, quo- ni- am|sus- ce- pi-||sti me, quo- ni-|
 G4 A8 =F4 | E6 DC D4 D4 | E16 | z4 C4 C4 C4 | C8 A,4 A4- | A4 G4 =F4 E4 | =F8 E4 E4 | %22
w: am sus- ce-|pi- * * sti *|me,|nec de- lec-|ta- sti i-|* ni- mi- cos|me- os su-|
 D4 G,4 ^F,6 G,2 | A,4 D4 D8- | D8 E8- | E4 E4 E4 E4 | G4 D4 z4 B,4 | D6 C2 B,4 A,4 | D16 | %29
w: per me, su- *|* per me.|_ Do-|* mi- ne cla-|ma- vi, cla-|ma- * * vi|ad|
 G,8 z4 A,4 | D6 C2 B,4 A,4 | G,4 F,4 z8 | D6 C2 B,2 A,2 G,4- | G,4 D4 G,4 G,4 | A,4 E4 D6 C2 | %35
w: te, cla-|ma- * * vi|ad te,|et _ _ _ _|_ sa- na- sti|me, et sa- *|
 B,2 A,2 G,4 D4 G4- | G2 F2 E4 D8 | D6 C2 B,2 A,2 G,4- | G,4 D4 G,4 G,4 | A,4 E4 D6 C2 | %40
w: * * * na- sti|_ _ _ me,|et _ _ _ _|_ sa- na- sti|me, et sa- *|
 B,2 A,2 G,4 D4 G4- | G4 E4 D6 C2 | B,2 A,2 B,2 C2 D4 E4- | E4 D4 E8 | D16 |] %45
w: * * * na- sti|_ me, et _|_ _ _ _ _ sa-|* na- sti|me.|
V:3
 G8 B4 d4- | d2 c2 B2 A2 G2 F2 E4 | B8 e6 d2 | c2 B2 e4 d4 B4 | G6 A2 B8 | z4 G4 A4 c2 B2 | %6
w: Ex- al- ta-|* * * * * * bo|te Do- *|* * * * mi-|ne, _ _|ex al- ta- *|
 A2 G2 g2 f2 e2 d2 c4 | G8 z4 G4- | G4 B4 d4 e4 | e12 e4- | e2 d2 d8 ^c4 | d8 B6 B2 | B4 c8 A4 | %13
w: |bo, ex-|* al- ta- bo|te Do-|* * * mi-|ne, quo- ni-|am sus- ce-|
 e8 d8 | G4 B6 B2 B4 | c8 A4 d4- | d2 c2 c6 BA B4 | c8 c6 BA | G16 | z4 e4 e4 e4 | e8 c4 c4- | %21
w: pi- sti|me, quo- ni- am|sus- ce- pi-||sti me, _ _|_|nec de- lec-|ta- sti i-|
 c2 c2 c4 c4 G4 | G2 A2 B2 c2 d4 d4- | d2 c2 B4 A8 | B8 c8- | c4 c4 c8 | z4 B4 d6 c2 | B4 A4 d8 | %28
w: * ni- mi- cos me-|os _ _ _ _ su-|* * * per|me, Do-|* mi- ne|cla- ma- *|* vi ad|
 B16 | z4 B4 d6 c2 | B4 A4 G4 F4 | z4 D4 d6 c2 | B4 A4 G2 A2 B2 c2 | d4 B8 e4- | %34
w: te,|cla- ma- *|* vi ad te,|cla- ma- *|* vi ad _ _ _|_ te, et|
 e2 d2 c2 B2 A4 B4 | d6 c2 B2 A2 G4 | c6 B2 A8 | B4 B4 G2 A2 B2 c2 | d4 B4 B4 e4- | %39
w: _ _ _ _ _ sa-|na- * * * *|sti _ _|me, et sa- * * *|* na- sti, et|
 e2 d2 c2 B2 A4 B4 | d6 c2 B2 A2 G4 | c8 A8 | d6 c2 B2 A2 B4 | c4 G8 c4- | c4 B2 A2 B8 |] %45
w: _ _ _ _ _ sa-|na- * * * *|sti me,|et _ _ _ _|sa- na- sti|_ _ _ me.|
V:4
 z16 | D,8 E,4 G,4- | G,2 F,2 E,2 D,2 C,2 B,,2 A,,4 | E,4 C,4 G,6 A,2 | B,2 A,2 G,2 F,2 E,6 E,2 | %5
w: |Ex- al- ta-|* * * * * * bo|te _ Do- *|* * * * * mi-|
 E,8 z8 | z16 | z8 C,8 | E,4 G,6 F,2 E,2 D,2 | C,2 B,,2 A,,4 E,4 C,4 | G,8 A,6 A,2 | D,8 z8 | z16 | %13
w: ne.||Ex-|al- ta- * * *|* * bo te _|Do- * mi-|ne,||
 z16 | z8 E,6 E,2 | E,4 =F,8 D,4 | A,8 G,8 | C,8 z4 C,4 | C,4 C,4 C,8 | A,,16 | E,6 E,2 A,8 | %21
w: |quo- ni-|am sus- ce-|pi- sti|me, nec|de- lec- ta-|sti|i- ni- mi-|
 =F,8 C,8 | G,,6 A,,2 B,,2 C,2 D,2 E,2 | ^F,4 G,4 D,8 | G,8 C,8- | C,4 C,4 C,8 | z4 G,4 B,6 A,2 | %27
w: cos me-|os _ _ _ _ _|_ su- per|me, Do-|* mi- ne|cla- ma- *|
 G,4 F,4 G,4 D,4 | z8 z4 G,4 | B,6 A,2 G,4 F,4 | G,4 D,4 z4 D,4 | D6 C2 B,4 A,4 | G,4 D,4 z8 | %33
w: * vi ad te,|cla-|ma- * * vi|ad te, cla-|ma- * * vi|ad te,|
 G,6 F,2 E,2 D,2 C,2 B,,2 | A,,4 A,,4 D,2 C,2 B,,2 A,,2 | G,,4 G,6 F,2 E,2 D,2 | C,8 D,8 | G,8 z8 | %38
w: et _ _ _ _ _|_ sa- na- * * *|* sti _ _ _|_ _|me,|
 G,6 F,2 E,2 D,2 C,2 B,,2 | A,,4 A,,4 D,2 C,2 B,,2 A,,2 | G,,4 G,6 F,2 E,2 D,2 | C,8 D,8 | %42
w: et _ _ _ _ _|_ sa- na- * * *|* sti _ _ _|_ _|
 G,,4 G,6 F,2 E,2 D,2 | C,4 B,,4 C,4 C,4 | G,,16 |] %45
w: me, et _ _ _|_ sa- na- sti|me.|

